X: 1
T: Giselle's Mazurka
C: Gary Chapin
R: mazurka
S: Qu\'ebec City workshop, from Betsy Hooper
Q: 3/4=54
M: 3/4
L: 1/8
K: G
|:\
G2 zd cB | "G"G2 zd cB | "D7"A2 Ac BA | "G"B2 G2 D2 |\
G2 zd cB | "G"G2 zd cB | "D7"A2 Ac BA | "G"G4 D2 :|
|:\
"G"G2 G2 G2 | "D7"A2 A2 A2 | "G"B2 B2 B2 | "F"c6 |\
"G"dc Bd cB | "D7"cB Ac BA | "G"G2 G2 "D7"A2 | "G"G4 D2 :|
